X:1
T:Nun Preiset Alle, 11.11.9.10
T:Appelislieder (Bresla
T:Nun Preiset Alle, 11.11.9.10
T:Public Domain
C:Appelislieder (Bresla
Z:Public Domain
%%score ( 1 2 ) ( 3 4 )
L:1/8
M:3/4
K:F
V:1 treble 
V:2 treble 
V:3 bass 
V:4 bass 
V:1
 [CF]2 [DF]2 [EG]2 | [FA]2 [CF]4 | [EG]2 G2 [FA]2 | [FB]3 [FB] [FB]2 | [FA]2 [CA]2 [FB]2 | %5
 [Ec]2 [EG]4 | [FA]2 [FA]2 [G=B]2 | [Gc]3 [Gc] [Gc]2 | [EG]2 [DG]2 [^FA]2 | [GB]4 [Fd]2 | %10
 [_Ec]4 [DB]2 | [DA]4 [=B,G]2 | [Dd]2 [Fc]2 [DB]2 | [Ec]3 [GB] [FA]2 | [FB]4 [FA]2 | (F2 E2) F2 | %16
 [Fd]2 [Fc]2 [DB]2 | [Ec]3 [DB] [DA]2 | [DB]4 [CA]2 | [CG]6 | [A,F]6 |] %21
V:2
 x6 | x6 | x2 G2 x2 | x6 | x6 | x6 | x6 | x6 | x6 | x6 | x6 | x6 | x6 | x6 | x6 | G4 F2 | x6 | x6 | %18
 x6 | x6 | x6 |] %21
V:3
 [F,A,]2 [D,A,]2 [C,C]2 | [F,,C]2 [F,A,]4 | [C,C]2 [E,C]2 [F,C]2 | [B,,D]3 [B,,D] [B,,D]2 | %4
 [F,C]2 [F,A,]2 [D,F,]2 | [C,G,]2 [C,C]4 | [F,C]2 [D,D]2 [G,D]2 | [C,E]3 [C,E] [C,E]2 | %8
 [C,G,]2 [B,,B,]2 [A,,C]2 | [G,,D]4 [B,,B,]2 | [C,G,]4 [G,,G,]2 | (G,2 ^F,2) [G,,G,]2 | %12
 [B,,F,]2 [F,A,]2 G,2 | [C,G,]3 [E,C] [F,C]2 | [B,,D]4 [F,C]2 | [C,C]4 [F,A,]2 | %16
 [B,,B,]2 [F,A,]2 G,2 | [C,G,]3 [G,,G,] [D,F,]2 | [B,,F,]4 [F,,F,]2 | (F,2 E,D, E,2) | [F,,F,]6 |] %21
V:4
 x6 | x6 | x6 | x6 | x6 | x6 | x6 | x6 | x6 | x6 | x6 | D,4 x2 | x4 G,2 | x6 | x6 | x6 | x4 G,2 | %17
 x6 | x6 | C,6 | x6 |] %21

